!!!SOCIAL_FUNCTION:	hand game songs
!!!PDT:	1922
!!!OTL: No_100_Hand_Game_Song_(g).krn
!!!REG: Southwest
!!!LANG: Non-Tone
!!!LING_GROUP: Uto-Aztecan
**kern	**kern
*staff2	*staff1
=1-	=1-
=	=
*clefF4	*clefF4
*k[]	*k[]
*M3/4	*M3/4
16GG/LL	4d\
16GG/	.
16GG/	.
16GG/JJ	.
16GG/LL	8A\L
16GG/	.
16GG/	16.d\L
16GG/JJ	.
.	32d\JJk
16GG/LL	4A\
16GG/	.
16GG/	.
16GG/JJ	.
=2	=2
2.r	8d\L
.	8e\J
.	8d\L
.	8e\J
.	16.d\LL
.	32d\JK
.	8A\J
=3	=3
2.r	8d\L
.	8e\J
.	8d\L
.	16.A\L
.	32A\JJk
.	4A\
=4	=4
2.r	4d\
.	8A\L
.	16.A\L
.	32A\JJk
.	4A\
=5	=5
2.r	4d\
.	16A\LL
.	16A\
.	16.d\
.	32d\JJk
.	4A\
=6	=6
2.r	4d\
.	12A\L
.	12A\
.	12A\J
.	4A\
=7	=7
2.r	12A\L
.	12A\
.	12A\J
.	12A\L
.	12A\
.	12A\J
.	4A\
==:|!	==:|!
*-	*-
